X:127
T: Wenzhou huagu
N: C1621
O: China,Zhejiang, Wenzhou
S: III, 628]
R: Wuge, Dengdiao]
M: 2/4
L: 1/8
K: Bb
c2G2 | G2c2 | GFFG | B4 |
c2G2 | G2B2 | c2G2 | F4 |
d2c2 | B2G2 | F2FG | B4 |
c2G2 | B2c2 | G2g2 | F4

@@@ Tune index: 6682
